<?xml version="1.0" encoding="UTF-8"?>
<map version="1.0" orientation="orthogonal" renderorder="right-down" width="60" height="40" tilewidth="32" tileheight="32" nextlayerid="4" nextobjectid="100">
 <tileset firstgid="1" name="sunny" tilewidth="32" tileheight="32" tilecount="4" columns="4">
  <image source="sunny_idle_down.png" width="128" height="32"/>
 </tileset>
 <!-- Rotation (D1a): each shape turns about its stored point, the small square marked "pivot". Clockwise on screen. -->
 <objectgroup id="1" name="frame" color="#ff00ff00">
  <object id="1" name="viewport" x="0" y="0" width="1000" height="800"/>
 </objectgroup>
 <objectgroup id="2" name="rotated" color="#ffff8040">
  <object id="10" name="rect-90" x="300" y="300" width="120" height="80" rotation="90"><properties><property name="line_width" type="int" value="3"/></properties></object>
  <object id="11" name="pivot-rect" x="300" y="300" width="6" height="6"/>
  <object id="12" name="label-rect" x="200" y="250" width="0" height="0"><text fontfamily="Sans" pixelsize="20" color="#ffffffff">rect 90 w3</text></object>
  <object id="13" name="polyline-90" x="500" y="300" rotation="90"><properties><property name="line_width" type="int" value="2"/></properties><polyline points="0,0 120,0 60,60"/></object>
  <object id="14" name="pivot-line" x="500" y="300" width="6" height="6"/>
  <object id="15" name="label-line" x="500" y="250" width="0" height="0"><text fontfamily="Sans" pixelsize="20" color="#ffffffff">polyline 90 w2</text></object>
  <object id="16" name="polygon-90" x="700" y="300" rotation="90"><polygon points="0,0 100,0 50,80"/></object>
  <object id="17" name="pivot-poly" x="700" y="300" width="6" height="6"/>
  <object id="18" name="label-poly" x="700" y="200" width="0" height="0"><text fontfamily="Sans" pixelsize="20" color="#ffffffff">polygon 90 w1</text></object>
  <object id="30" name="rect-45" x="300" y="500" width="120" height="80" rotation="45"><properties><property name="line_width" type="int" value="3"/></properties></object>
  <object id="31" name="pivot-rect45" x="300" y="500" width="6" height="6"/>
  <object id="32" name="label-rect45" x="200" y="460" width="0" height="0"><text fontfamily="Sans" pixelsize="20" color="#ffffffff">rect 45 w3</text></object>
  <object id="33" name="polyline-45" x="600" y="500" rotation="45"><properties><property name="line_width" type="int" value="2"/></properties><polyline points="0,0 120,0 60,60"/></object>
  <object id="34" name="pivot-line45" x="600" y="500" width="6" height="6"/>
  <object id="35" name="label-line45" x="600" y="460" width="0" height="0"><text fontfamily="Sans" pixelsize="20" color="#ffffffff">polyline 45 w2</text></object>
  <object id="40" name="ellipse-45" x="250" y="700" width="120" height="60" rotation="45"><properties><property name="line_width" type="int" value="3"/></properties><ellipse/></object>
  <object id="41" name="pivot-ellipse45" x="250" y="700" width="6" height="6"/>
  <object id="42" name="label-ellipse45" x="250" y="660" width="0" height="0"><text fontfamily="Sans" pixelsize="20" color="#ffffffff">ellipse 45 w3</text></object>
  <object id="50" name="tile-90" x="950" y="330" width="32" height="32" gid="1" rotation="90"/>
  <object id="51" name="text-90" x="880" y="400" width="200" height="40" rotation="90"><text fontfamily="Sans" pixelsize="20" color="#ffffffff">turned text</text></object>
  <object id="52" name="tile-45" x="60" y="400" width="32" height="32" gid="1" rotation="45"/>
  <object id="53" name="tile-45b" x="120" y="400" width="32" height="32" gid="2" rotation="45"/>
  <object id="54" name="text-45" x="60" y="300" width="220" height="40" rotation="45"><text fontfamily="Sans" pixelsize="20" color="#ffffffff">text 45</text></object>
 </objectgroup>
</map>
