<?xml version="1.0" encoding="UTF-8"?>
<map version="1.10" tiledversion="1.11.0" orientation="isometric" renderorder="right-down" width="8" height="6" tilewidth="64" tileheight="32" infinite="0" nextlayerid="4" nextobjectid="1">
 <tileset firstgid="1" source="tileset_isometric.tsx"/>
 <tileset firstgid="4" source="tileset_obstacle.tsx"/>
 <layer id="1" name="ground" width="8" height="6">
  <data encoding="csv">
3,2,1,2,1,2,1,2,
2,1,2,1,2,1,2,1,
1,2,1,2,1,2,1,2,
2,1,2,1,2,1,2,1,
1,2,1,2,1,2,1,2,
2,1,2,1,2,1,2,3
</data>
 </layer>
 <layer id="2" name="obstacles" width="8" height="6">
  <data encoding="csv">
0,0,0,0,0,0,0,0,
0,0,0,0,0,0,0,0,
0,0,0,4,4,0,0,0,
0,0,0,0,4,4,0,0,
0,0,0,0,0,0,0,0,
0,0,0,0,0,0,0,0
</data>
 </layer>
 <layer id="3" name="sprites" width="8" height="6">
  <data encoding="csv">
0,0,0,0,0,0,0,0,
0,0,0,0,0,0,0,0,
0,0,0,0,0,0,0,0,
0,0,0,0,0,0,0,0,
0,0,0,0,0,0,0,0,
0,0,0,0,0,0,0,0
</data>
 </layer>
</map>
