<?xml version="1.0" encoding="UTF-8"?>
<map version="1.10" tiledversion="1.11.0" orientation="staggered" renderorder="right-down" staggeraxis="y" staggerindex="odd" width="8" height="6" tilewidth="64" tileheight="48" infinite="0" nextlayerid="2" nextobjectid="1">
 <tileset firstgid="1" source="tileset_staggered.tsx"/>
 <layer id="1" name="ground" width="8" height="6">
  <data encoding="csv">
3,2,1,2,1,2,1,2,
2,1,2,1,2,1,2,1,
1,2,1,2,1,2,1,2,
2,1,2,1,2,1,2,1,
1,2,1,2,1,2,1,2,
2,1,2,1,2,1,2,4
</data>
 </layer>
</map>
